X: 10061
T: Dick Tobin's
R: polka
M: 2/4
K: Adorian
|:e/d/|eA AB|cd/c/ BA|dG GB|dB AG|
EA AB|cd/c/ BA|Be dB|BA A:|
|:B|e>e ed|eA AB|d>e dc|B/A/G Bd|
e>e ed|ef ge|dB GA|BA A:|

